icons/chat-new-line.svg

<svg xmlns="http://www.w3.org/2000/svg" width="24" height="24" fill="none"><g clip-path="url(#a)"><g><path fill="#121212" d="M14 3V5H4V18.385L5.763 17H20V10H22V18C22 18.2652 21.8946 18.5196 21.7071 18.7071C21.5196 18.8946 21.2652 19 21 19H6.455L2 22.5V4C2 3.73478 2.10536 3.48043 2.29289 3.29289C2.48043 3.10536 2.73478 3 3 3H14ZM19 3V0H21V3H24V5H21V8H19V5H16V3H19Z"/></g></g><defs><clipPath id="a"><rect width="24" height="24" fill="white"/></clipPath></defs></svg>

<svg width="24" height="24" fill="none" xmlns="http://www.w3.org/2000/svg"><g clip-path="url(#a)"><path d="M14 3v2H4v13.385L5.763 17H20v-7h2v8a1 1 0 0 1-1 1H6.455L2 22.5V4a1 1 0 0 1 1-1h11Zm5 0V0h2v3h3v2h-3v3h-2V5h-3V3h3Z" /></g><defs><clipPath id="a"><path fill="#fff" d="M0 0h24v24H0z"/></clipPath></defs></svg>
